X: 247
%
U:~=!turn!
T: I Winna Gae to Bed
C:
O:Scotland
B:Keith Norman MacDonald : "The Skye collection of the best reels & strathspeys extant" : 1887
Z:Ralph Palmer
R:Reel
M:C|
L:1/8
K:D
g | (f/2g/2a) (AB) ABdF | EDEF TB3 g | (f/2g/2a) (AB) AB{/c}dF | EDEF A2 z :|
e | Tf2 fd {/f}g2 (ge) | Tf2 (fd) TB2 (de) | Tf2 (fd) {/f}g2 (ge) | (f/2g/2a) (ef) {/c}d3 e |
Tf2 (fd) {/f}g2 (ge) | Tf2 (fd) TB2 {/c}(de) | fafd gbge | (f/2g/2a) (ef) {/c}d2 z |]


